icons/outline/drag-drop.svg

<!--
tags: [location, gesture, move]
version: "1.3"
category: Design
unicode: "eb89"
-->
<svg
  xmlns="http://www.w3.org/2000/svg"
  width="24"
  height="24"
  viewBox="0 0 24 24"
  fill="none"
  stroke="currentColor"
  stroke-width="2"
  stroke-linecap="round"
  stroke-linejoin="round"
>
  <path d="M19 11v-2a2 2 0 0 0 -2 -2h-8a2 2 0 0 0 -2 2v8a2 2 0 0 0 2 2h2m2 -6l9 3l-4 2l-2 4l-3 -9m-10 -10l0 .01m4 -.01l0 .01m4 -.01l0 .01m4 -.01l0 .01m-12 3.99l0 .01m0 3.99l0 .01m0 3.99l0 .01" />
</svg>

<!--
tags: [location, gesture, move]
version: "1.3"
category: Design
unicode: "eb89"
-->
<svg
  xmlns="http://www.w3.org/2000/svg"
  width="24"
  height="24"
  viewBox="0 0 24 24"
  fill="none"
  stroke="currentColor"
  stroke-width="2"
  stroke-linecap="round"
  stroke-linejoin="round"
>
    <path d="M19 11v-2a2 2 0 0 0 -2 -2h-8a2 2 0 0 0 -2 2v8a2 2 0 0 0 2 2h2M13 13l9 3l-4 2l-2 4l-3 -9M3 3l0 .01M7 3l0 .01M11 3l0 .01M15 3l0 .01M3 7l0 .01M3 11l0 .01M3 15l0 .01" />
</svg>
